X:1
T:James Gibb editions
T:Tu es Petrus - Ravanello
T:#
%%score [ 1 2 3 ]
L:1/8
Q:1/4=84
M:4/4
K:Bb
V:1 treble nm="Soprano I"
V:2 treble nm="Soprano II"
V:3 treble nm="Alto I" snm="A"
V:1
"^Tu es Petrus, op.66/23""^Oreste Ravanello\n (1871-1938)""^maestoso""^,"!ff! f6 f2 | (f4 g4) | %2
w: Tu es|Pe\- *|
 f4 z2 f2 | f4 f2 d2 |[M:4/4] (e4 d3 e | f6 e2) | !fermata!d8 || %7
w: trus, et|su- per hanc|pe\- * *||tram|
[M:3/2]"^adagio"!ff![Q:1/4=168] !^!d4 !^!c4 !^!d4 | %8
w: ae- di- fi-|
[M:3/2][Q:1/4=168][Q:1/4=168][Q:1/4=168] !^!c8 c4 | !^!f4 !^!e4 !^!f4 | !^!d12- | d4"^," c4 g4 | %12
w: ca- bo,|ae- di- fi-|ca\-|* bo Ec-|
 (f4 B2 c2)[Q:1/4=166] d2"^rall."[Q:1/4=164] e2 |[Q:1/4=157] (d12 |[Q:1/4=145] c12) | %15
w: cle\- * * si- am|me\-||
[Q:1/4=140] !fermata!B12 |] %16
w: am.|
V:2
"^,"!ff! d6 d2 | (d6 c2) | d4 z2 d2 | c4 d2 B2 |[M:4/4] (G2 c4 B2- | B2 A2 G4) | !fermata!F8 || %7
w: Tu es|Pe\- *|trus, et|su- per hanc|pe\- * *||tram|
[M:3/2]!ff! !^!B4 !^!A4 !^!B4 |[M:3/2] !^!A8 A4 | !^!A4 !^!B4 !^!c4 | !^!B8 B2 A2 | G4 c4"^," B4 | %12
w: ae- di- fi-|ca- bo,|ae- di- fi-|ca- bo Ec-|cle- si- am|
 (B12- | B12 | B4 A2 G2 A4) | !fermata!B12 |] %16
w: me\-|||am.|
V:3
"^,"!ff! B6 B2 | (B4 E4) | B4 z2 B2 | A4 B2 B2 |[M:4/4] (E4 G4 | D4 E4) | !fermata!B,8 || %7
w: Tu es|Pe\- *|trus, et|su- per hanc|pe\- *||tram|
[M:3/2]!ff! !^!B4 !^!F4 !^!D4 |[M:3/2] !^!F8 F4 | !^!F4 !^!G4 !^!A4 | (!^!B6 A2 G2 F2) | E8 E4 | %12
w: ae- di- fi-|ca- bo,|ae- di- fi-|ca\- * * *|bo Ec-|
 D4 G4 G4- |"^," G4 (F2 E2 D2 E2 | F12) | !fermata!B,12 |] %16
w: cle- si- am|* me\- * * *||am.|

